@extra/phlat-icons/symbolic-24/wireshark.svg

<?xml version="1.0" encoding="UTF-8" standalone="no"?>
<svg
   xmlns:dc="http://purl.org/dc/elements/1.1/"
   xmlns:cc="http://creativecommons.org/ns#"
   xmlns:rdf="http://www.w3.org/1999/02/22-rdf-syntax-ns#"
   xmlns:svg="http://www.w3.org/2000/svg"
   xmlns="http://www.w3.org/2000/svg"
   xmlns:sodipodi="http://sodipodi.sourceforge.net/DTD/sodipodi-0.dtd"
   xmlns:inkscape="http://www.inkscape.org/namespaces/inkscape"
   version="1.1"
   viewBox="-4 -4 24 24"
   id="svg15"
   sodipodi:docname="wireshark.svg"
   inkscape:version="0.92.1 r15371">
  <metadata
     id="metadata19">
    <rdf:RDF>
      <cc:Work
         rdf:about="">
        <dc:format>image/svg+xml</dc:format>
        <dc:type
           rdf:resource="http://purl.org/dc/dcmitype/StillImage" />
        <dc:title></dc:title>
      </cc:Work>
    </rdf:RDF>
  </metadata>
  <sodipodi:namedview
     pagecolor="#ffffff"
     bordercolor="#666666"
     borderopacity="1"
     objecttolerance="10"
     gridtolerance="10"
     guidetolerance="10"
     inkscape:pageopacity="0"
     inkscape:pageshadow="2"
     inkscape:window-width="951"
     inkscape:window-height="480"
     id="namedview17"
     showgrid="true"
     inkscape:zoom="14.75"
     inkscape:cx="-0.47457627"
     inkscape:cy="5.2881356"
     inkscape:window-x="1162"
     inkscape:window-y="214"
     inkscape:window-maximized="0"
     inkscape:current-layer="g13">
    <inkscape:grid
       type="xygrid"
       id="grid4496" />
  </sodipodi:namedview>
  <defs
     id="defs5" />
  <g
     fill-rule="evenodd"
     id="g13">
    <path
       opacity=".3"
       d="m11.507 4c0.18 0.066-1.625 1.018-1.177 5.6 0.2 2.033 3.219 1.448 5.67 1.639v2.58a2.177 2.177 0 0 1 -2.182 2.181h-11.636a2.177 2.177 0 0 1 -2.182 -2.182v-2.44c1.952-0.108 3.763-0.24 4.56-1.673 2.341-4.211 5.674-5.521 6.736-5.688 0.12-0.019 0.185-0.027 0.211-0.018z"
       stroke-width="2"
       fill="#f1f2f2"
       id="path7"
       style="opacity:0.3" />
    <path
       style="color:#000000;font-style:normal;font-variant:normal;font-weight:normal;font-stretch:normal;font-size:medium;line-height:normal;font-family:sans-serif;font-variant-ligatures:normal;font-variant-position:normal;font-variant-caps:normal;font-variant-numeric:normal;font-variant-alternates:normal;font-feature-settings:normal;text-indent:0;text-align:start;text-decoration:none;text-decoration-line:none;text-decoration-style:solid;text-decoration-color:#000000;letter-spacing:normal;word-spacing:normal;text-transform:none;writing-mode:lr-tb;direction:ltr;text-orientation:mixed;dominant-baseline:auto;baseline-shift:baseline;text-anchor:start;white-space:normal;shape-padding:0;clip-rule:nonzero;display:inline;overflow:visible;visibility:visible;opacity:1;isolation:auto;mix-blend-mode:normal;color-interpolation:sRGB;color-interpolation-filters:linearRGB;solid-color:#000000;solid-opacity:1;vector-effect:none;fill:#ebebeb;fill-opacity:1;fill-rule:nonzero;stroke:none;stroke-width:2.00002503;stroke-linecap:butt;stroke-linejoin:miter;stroke-miterlimit:4;stroke-dasharray:none;stroke-dashoffset:0;stroke-opacity:1;color-rendering:auto;image-rendering:auto;shape-rendering:auto;text-rendering:auto;enable-background:accumulate"
       mask="none"
       d="M 11.912109 3.0097656 C 11.797829 3.0024226 11.754724 3.0096719 11.714844 3.0136719 C 11.635072 3.0216629 11.589687 3.0295625 11.529297 3.0390625 C 10.773991 3.1577904 9.5677051 3.5719016 8.1328125 4.515625 C 6.6979199 5.4593485 5.1004147 6.938345 3.8691406 9.1523438 C 3.6705661 9.5094582 3.4306951 9.6789089 2.9765625 9.8242188 C 2.5224295 9.9695287 1.8711625 10.029883 1.1210938 10.044922 C 0.76703156 10.05202 0.38899272 10.048224 0 10.046875 L 0 12.068359 C 0.39028075 12.063877 0.76615718 12.052861 1.1621094 12.044922 C 1.9793047 12.028537 2.7965104 11.981111 3.5859375 11.728516 C 4.3753649 11.475921 5.1544205 10.957234 5.6171875 10.125 C 6.6757198 8.2216139 8.0281705 6.9775785 9.2324219 6.1855469 C 9.2490863 6.1745867 9.2607132 6.1728949 9.2773438 6.1621094 C 9.0225448 7.0717239 8.8940884 8.2102489 9.0332031 9.6328125 C 9.1298141 10.620268 9.9051702 11.39296 10.693359 11.679688 C 11.48155 11.966411 12.317904 11.994147 13.177734 11.998047 C 14.158071 12.002468 15.162676 11.992435 16 12.039062 L 16 9.96875 C 15.026412 9.9220177 14.050464 10.001938 13.1875 9.9980469 C 12.401398 9.994502 11.723009 9.9247163 11.376953 9.7988281 C 11.030865 9.6729396 11.052691 9.7185023 11.025391 9.4394531 C 10.79479 7.0813621 11.367693 5.9806343 11.804688 5.4238281 C 12.023186 5.1454253 12.204326 5.0131876 12.337891 4.9160156 C 12.371284 4.8917226 12.397244 4.8735897 12.458984 4.8242188 C 12.489856 4.7995334 12.527714 4.7759517 12.615234 4.6738281 C 12.658992 4.6227665 12.723676 4.5549697 12.791016 4.3847656 C 12.858359 4.2145615 12.908948 3.850452 12.742188 3.5390625 C 12.575428 3.227673 12.319515 3.110066 12.181641 3.0625 C 12.043765 3.014937 11.969249 3.0134356 11.912109 3.0097656 z "
       id="path9" />
    <path
       d="m13.818 0.5c0.94 0 1.682 0.742 1.682 1.682v11.636c0 0.94-0.742 1.682-1.682 1.682h-11.636c-0.94 0-1.682-0.742-1.682-1.682v-11.636c0-0.94 0.742-1.682 1.682-1.682h11.636z"
       stroke="#f1f2f2"
       fill="none"
       id="path11" />
  </g>
</svg>

<svg xmlns="http://www.w3.org/2000/svg" viewBox="-4 -4 24 24">
    <g fill-rule="evenodd">
        <path opacity=".3" d="M11.507 4c.18.066-1.625 1.018-1.177 5.6.2 2.033 3.219 1.448 5.67 1.639v2.58A2.177 2.177 0 0 1 13.818 16H2.182A2.177 2.177 0 0 1 0 13.818v-2.44c1.952-.108 3.763-.24 4.56-1.673 2.341-4.211 5.674-5.521 6.736-5.688.12-.019.185-.027.211-.018z" stroke-width="2" fill="#f1f2f2"/>
        <path style="line-height:normal;font-variant-ligatures:normal;font-variant-position:normal;font-variant-caps:normal;font-variant-numeric:normal;font-variant-alternates:normal;font-feature-settings:normal;text-indent:0;text-align:start;text-decoration-line:none;text-decoration-style:solid;text-decoration-color:#000;text-transform:none;text-orientation:mixed;shape-padding:0;isolation:auto;mix-blend-mode:normal" d="M11.912 3.01c-.114-.008-.157 0-.197.004-.08.008-.125.016-.186.025-.755.119-1.961.533-3.396 1.477-1.435.943-3.033 2.422-4.264 4.636-.198.357-.438.527-.892.672-.455.146-1.106.206-1.856.22-.354.008-.732.004-1.121.003v2.021c.39-.004.766-.015 1.162-.023.817-.016 1.635-.064 2.424-.316.79-.253 1.568-.772 2.031-1.604 1.059-1.903 2.411-3.147 3.615-3.94.017-.01.029-.012.045-.023-.254.91-.383 2.048-.244 3.47.097.988.872 1.761 1.66 2.048.789.286 1.625.314 2.485.318.98.004 1.985-.006 2.822.041V9.97c-.974-.047-1.95.033-2.813.029-.786-.003-1.464-.073-1.81-.2-.346-.125-.324-.08-.352-.359-.23-2.358.343-3.458.78-4.015.218-.279.4-.41.533-.508.033-.024.06-.042.121-.092.03-.024.069-.048.156-.15.044-.051.109-.119.176-.29.067-.17.118-.534-.049-.845a.988.988 0 0 0-.56-.477c-.138-.047-.213-.049-.27-.052z" color="#000" font-weight="400" font-family="sans-serif" white-space="normal" overflow="visible" fill="#ebebeb" fill-rule="nonzero" stroke-width="2"/>
        <path d="M13.818.5c.94 0 1.682.742 1.682 1.682v11.636c0 .94-.742 1.682-1.682 1.682H2.182C1.242 15.5.5 14.758.5 13.818V2.182C.5 1.242 1.242.5 2.182.5h11.636z" stroke="#f1f2f2" fill="none"/>
    </g>
</svg>
